X:1
T:PARADISO
T: Laukens Music Productions  
T:Foxtrot
T:PARADISO
T:Arr. H. Laukens
C:Unknown
Z:All Rights Reserved
L:1/4
Q:1/4=190
M:2/2
K:D
V:1 treble nm="MusicXML Part"
%%MIDI channel 2
%%MIDI program 16
%%MIDI control 7 102
%%MIDI control 10 64
V:1
 D E |"D" F2 F2- | F2 E D |"A7" C B, A,2- | A,2 A A | A3 G | F2 (3E D E |"D" D4- | D z D E |: %9
"D" F2 F2- | F2 E D |"A7" C B, A,2- | A,2 A A | A3 B | A2 G2 |"D" F4- | F2 D E | F2 F2- | F2 E D | %19
"A7" C B, A,2- | A,2 A A | A3 G | F2 (3E D E ||"D" D4- | D A A A |"A7" G F E D | C B, A, G, || %27
"D" A, D D D | D D"Ddim" C B, |"A7" C E3- | E4 | A A A A | A B A G |"D" F4- | F4 | A, D D D | %36
 D D"Ddim" C B, |"A7" C E3- | E4 |"Bm" F F F F |"E7" ^G E F G |"A7" A3 A |"Em" G3 G |"F#m" F3 F | %44
"G" E4- |1,2"A7" E z D E :|3"D" D4- || D z D E ||"D" F2 F2- | F2 E D |"A7" C B, A,2- | A,2 A A | %52
 A3 B | A2 G2 |"D" F4- | F2 D E | F2 F2- | F2 E D |"A7" C B, A,2- | A,2 A A | A3 G | F2 (3E D E | %62
"D" D4- | D z z2 |] %64

